X: 956
T: Tam Lin
B: jims roots
M:4/4
L:1/8
R: reel
Q: 1/4=100
K:Dmin
V:1 
%Z: davydd
%S: <a href="http://thesession.org/tunes/248#setting12960" rel="nofollow">http://thesession.org/tunes/248#setting12960</a>
DE|: "Dm"FEDC DEFD|"Bb"B,2 DB, FB,DB,|"C"C2 EC GCEC|"Dm"FAFE "C"FDDE|
     "Dm"FEDC DEFD|"Bb"B,2 DB, FB,DB,|"C"C2 EC GCEC|"C"FAFE "Dm"FD D2:|
  |: "Dm"dA (3AAA FADA|dA (3AAA FADA |"C"cG (3GGG cGcd|edeg fed^c|
     "Dm"dA (3AAA FADA|dA (3AAA FADA,|"Bb"B,A,B,C "C"DCDE |"Dm"FD"C"EC "Dm"D4:|
  |: "Dm"fd (3ddd AGFE|DEFG A=Bcd|"C"ec (3ccc ecge | ec (3ccc agfe|
     "Dm"fd (3ddd Adfa|fdAG FEDA,|"Bb"B,A,B,C "C"DCDE|"Dm"FD"C"EC "Dm"D4:|
% abcbook-tune_id 6298c297afd5ab01905fe88c


% abcbook-boost 0
% abcbook-tablature 
% abcbook-transpose 
% abcbook-lastupdated 1654178455888
% abcbook-soundfonts 
% abcbook-repeats 1


